X: 1445
T: Anascaul, The
R: polka
M: 2/4
K: Adorian
|:AB cd|ef g2|a>g ed|B>A G2|
A>B cd|ef ge|ag/e/ dB|A2 A2:|
|:ag ed|ef g2|ag ed|BA G2|
A>B cd|ef ge|ag/e/ dB|A2 A2:|

